src/assets/svg/accordion-item-icon-3.svg

<svg width="32" height="32" viewBox="0 0 32 32" fill="none" xmlns="http://www.w3.org/2000/svg">
<path fill-rule="evenodd" clip-rule="evenodd" d="M12.6306 6.97028C10.8751 8.45898 10.4677 8.65563 8.74025 8.83821C6.49315 9.07693 6.53527 9.0629 6.61952 9.5123C6.70377 9.98986 6.83025 11.8016 6.87238 12.2791C5.18702 14.2032 5.14486 14.1189 5.29934 15.2004C5.35552 15.6358 5.24318 19.6806 5.52407 23.4304C5.5943 24.3715 5.90324 24.8068 6.77405 25.2562C8.45934 26.0989 9.84977 25.6074 8.51555 24.6383C7.32177 23.7675 7.20942 23.3883 7.08305 19.9334C7.04087 18.8098 6.94254 17.2789 6.8583 16.5205C6.52125 13.515 7.54653 14.765 7.50435 15.0178C7.4201 15.6919 7.75715 16.2256 9.2459 16.9981C10.1448 17.4615 13.5013 19.6103 14.8356 20.0598C16.8159 20.748 17.6304 19.512 22.2932 16.3239C23.15 15.7481 23.7117 15.2284 24.0347 14.7228C24.8493 13.4729 24.9336 19.807 24.1331 22.5035C23.5994 24.3012 23.4449 24.3574 18.3187 24.4838C13.066 24.6102 10.566 24.9473 10.6924 25.3265C11.0014 26.2534 22.6444 26.4641 24.4842 25.5933C25.2988 25.2001 26.1836 23.2057 26.3521 22.2367C26.6049 20.8041 26.619 18.5991 26.3943 15.6638C26.2398 13.5572 26.0291 13.0937 24.8634 12.0544C24.4561 11.6892 24.428 11.0011 24.7931 9.62465C24.9336 9.09101 25.1162 8.23428 23.8381 8.23428C22.5601 8.23428 20.5096 8.31853 20.1584 8.31853C19.6528 8.00958 17.5603 6.81575 17.1951 6.4506C16.8721 6.1978 14.9058 5.04616 12.6306 6.97028ZM17.1951 7.75678C17.6726 8.06573 18.0658 8.33261 18.0658 8.37473C18.0658 8.40283 16.858 8.43088 15.3833 8.43088C12.5182 8.43088 12.4621 8.40283 13.4593 7.78482C14.8918 6.87195 15.8047 6.87195 17.1951 7.75678ZM23.1921 13.7116C23.0797 14.2734 22.4758 14.5262 22.0685 14.2032C21.7736 13.9785 21.4927 13.9223 20.3551 13.9223C20.004 13.9223 13.9648 13.8942 11.184 14.0909C8.74024 14.2594 10.0464 15.2284 11.3385 15.397C12.42 15.5374 21.1276 15.2004 20.959 15.4672C20.8748 15.6077 18.122 17.6301 16.3103 19.1047C15.9311 18.9081 8.86667 15.3127 8.59979 15.3127C8.36107 15.3127 8.19252 9.86343 8.2066 9.84941C8.24872 9.7932 16.4085 9.5685 23.1078 9.5685C23.3325 11.6471 23.4589 12.3634 23.1921 13.7116ZM16.3384 11.5909C15.4536 12.4757 16.4226 12.8128 19.6669 12.7566C22.5741 12.7004 22.7988 12.6443 22.2371 11.9982C21.7455 11.4083 16.844 11.0713 16.3384 11.5909Z" fill="#006B99"/>
</svg>

<svg xmlns="http://www.w3.org/2000/svg" width="32" height="32" fill="none">
  <path fill="#006B99" fill-rule="evenodd" d="M12.63 6.97c-1.75 1.49-2.16 1.69-3.89 1.87-2.25.24-2.2.22-2.12.67.08.48.21 2.3.25 2.77C5.2 14.2 5.14 14.12 5.3 15.2c.06.44-.06 4.48.22 8.23.07.94.38 1.38 1.25 1.83 1.69.84 3.08.35 1.75-.62-1.2-.87-1.31-1.25-1.44-4.7a58.75 58.75 0 0 0-.22-3.42c-.34-3 .69-1.75.64-1.5-.08.67.26 1.2 1.75 1.98.9.46 4.25 2.61 5.59 3.06 1.98.69 2.79-.55 7.45-3.74a5.97 5.97 0 0 0 1.74-1.6c.82-1.25.9 5.09.1 7.78-.53 1.8-.69 1.86-5.81 1.98-5.25.13-7.75.47-7.63.85.31.92 11.95 1.13 13.8.26.8-.39 1.7-2.38 1.86-3.35.25-1.44.27-3.64.04-6.58-.15-2.1-.36-2.57-1.53-3.6-.4-.37-.43-1.06-.07-2.44.14-.53.33-1.39-.95-1.39s-3.33.09-3.68.09c-.5-.31-2.6-1.5-2.96-1.87-.33-.25-2.3-1.4-4.57.52Zm4.57.79c.47.3.87.57.87.61 0 .03-1.21.06-2.69.06-2.86 0-2.92-.03-1.92-.65 1.43-.9 2.34-.9 3.74-.02Zm6 5.95c-.12.56-.72.82-1.13.5-.3-.23-.58-.29-1.71-.29-.36 0-6.4-.03-9.18.17-2.44.17-1.13 1.14.16 1.3 1.08.15 9.79-.19 9.62.08-.09.14-2.84 2.16-4.65 3.63-.38-.2-7.44-3.79-7.71-3.79-.24 0-.4-5.45-.4-5.46.05-.06 8.2-.28 14.9-.28.23 2.08.36 2.8.1 4.14Zm-6.86-2.12c-.89.89.08 1.22 3.33 1.17 2.9-.06 3.13-.12 2.57-.76-.5-.6-5.4-.93-5.9-.4Z" clip-rule="evenodd"/>
</svg>
